!!!!SEGMENT: pl-kk--kk-i-14--001_anonim--ave-filia-dei-patris.krn
!!!cenid: 17xx:2189
!!!COM: Anonim
!!!COM-rism: pe30004985
!!!CDT:
!!!CNT:
!!!OTL: Ave filia Dei patris
!!!PDT:
!!!AGN: Sacred
!!!SMS-siglum: PL-Kk
!!!SMS-shelfmark: Kk.I.14
!!!NIFC-rismID: 1001154376
!!!URL-scan: http://repozytorium.nifc.pl/skany/pl-kk-nut--i-14
!!!ONB-nifc: UWAGA: T (skan 0001-0002), B (0014-0015). Następny utwór: Dignare me laudare
!!!SMS-variant:
!!!SMS-altvar:
**kern	**text	**kern	**text
*part2	*part2	*part1	*part1
*staff2	*staff2	*staff1	*staff1
*I"Baſſo.	*	*I"2do Tenore	*
*I'B	*	*I'T 2	*
*clefF4	*	*clefC4	*
*k[b-]	*	*k[b-]	*
*M2/1	*	*M2/1	*
*met(c)	*	*met(c)	*
*all\right	*	*all\right	*
=1-	=1-	=1-	=1-
00r	.	00r	.
=2-	=2-	=2-	=2-
.	.	.	.
=3-	=3-	=3-	=3-
00r	.	00r	.
=4-	=4-	=4-	=4-
.	.	.	.
=5-	=5-	=5-	=5-
!LO:TX:t=P:problem:kreska pseudotaktowa	!	!	!
0r	.	00rc	.
=6-	=6-	=6-	=6-
!LO:TX:t=P:problem:kreska pseudotaktowa	!	!	!
1D	A-	.	.
2GG/	-ve	.	.
*2\right	*	*	*
2.E-X\	Fi-	.	.
=7-	=7-	=7-	=7-
.	.	0r	.
4E-y\	-li-	.	.
!LO:TX:t=P:problem:kreska pseudotaktowa	!	!	!
2D/	-a	.	.
2C/	DE-	.	.
!LO:TX:t=P:problem:kreska pseudotaktowa	!	!	!
!LO:N:acc=#	!	!	!
2BBn/	-i	.	.
=8-	=8-	=8-	=8-
!LO:TX:t=P:problem:kreska pseudotaktowa	!	!	!
1C	Pa-	1G	A-
2.D/	.	2D/	-ve
*	*	*2\right	*
.	.	2.B-\	Fi-
!LO:TX:t=P:problem:kreska pseudotaktowa	!	!	!
4C/	.	.	.
=9-	=9-	=9-	=9-
4D/	.	.	.
4Eny/	.	4B-\	-li-
!LO:TX:t=P:problem:kreska pseudotaktowa	!	!	!
2F\	.	2A/	-a
2C/	.	2G/	DE-
!LO:TX:t=P:problem:rozdzielacz słów:global	!	!	!
2D,</	-tris	2F#X/	-i
=10-	=10-	=10-	=10-
(<1E-X	DE-	2.G/	Pa-
.	.	4A/	.
!LO:TX:t=P:problem:kreska pseudotaktowa	!	!	!
1D)	.	4B-\	.
.	.	8A/L	.
.	.	8G/J	.
.	.	2A/	.
=11-	=11-	=11-	=11-
2E-y,</	-i	2G/	-tris
2C/	Pa-	2.c\	Fi-
!LO:LB:g=original	!	!	!
!LO:TX:t=P:problem:kreska pseudotaktowa	!	!	!
1GG	-tris	.	.
.	.	4c\	-li-
.	.	2B-\	-a
=12-	=12-	=12-	=12-
00r	.	2e-X\	DE-
.	.	2d\	-i
!	!	!LO:LB:g=original	!
.	.	2.c\	Pa-
.	.	8B-\L	.
.	.	8A\J	.
=13-	=13-	=13-	=13-
.	.	4G/	.
.	.	4A/	.
.	.	4B-/	.
.	.	8A/L	.
.	.	8G/J	.
.	.	4Fny/	.
.	.	4G/	.
.	.	4A/	.
.	.	4B-/	.
=14-	=14-	=14-	=14-
!LO:TX:t=P:problem:kreska pseudotaktowa	!	!	!
0rE	.	2c\	.
.	.	2B-\	.
.	.	1A	.
=15-	=15-	=15-	=15-
!LO:TX:t=P:problem:kreska pseudotaktowa	!	!	!
1G	A-	1G	-tris
2D/	-ve	0r	.
2.B-\	Fi-	.	.
=16-	=16-	=16-	=16-
4B-\	-li-	.	.
!LO:TX:t=P:problem:kreska pseudotaktowa	!	!	!
2A\	-a	.	.
2G\	DE-	1d	A-
!LO:TX:t=P:problem:kreska pseudotaktowa	!	!	!
2F#X\	-i	.	.
=17-	=17-	=17-	=17-
2G\	Pa-	2G/	-ve
4C/	.	2.e-X\	Fi-
!LO:TX:t=P:problem:kreska pseudotaktowa	!	!	!
4D/	.	.	.
4E-X\	.	.	.
4Fny\	.	4e-\	-li-
4G\	.	2d\	-a
!LO:TX:t=P:problem:kreska pseudotaktowa	!	!	!
4F\	.	.	.
=18-	=18-	=18-	=18-
2E-X\	.	2c\	DE-
!LO:TX:t=P:problem:kreska pseudotaktowa	!	!LO:N:acc=#	!
2D\	.	2Bn\	-i
1C	.	2.c\	Pa-
.	.	4B-y\	.
=19-	=19-	=19-	=19-
2D,</	-tris	2A/	.
!	!	!LO:LB:g=original	!
2.G\	Fi-	4G/	.
.	.	4A/	.
.	.	4B-\	.
4G\	-li-	4c\	.
!LO:TX:t=P:problem:kreska pseudotaktowa	!	!	!
2F\	-a	2d\	.
=20-	=20-	=20-	=20-
2Eny\	DE-	2c\	.
2D/	-i	2d\	.
!LO:LB:g=original	!	!	!
2C/	Pa-	1G	-tris
!LO:TX:t=P:problem:kreska pseudotaktowa	!	!	!
!LO:N:acc=#	!	!	!
2BBn/	.	.	.
=21-	=21-	=21-	=21-
4C/	.	0r	.
4D/	.	.	.
4E-X/	.	.	.
8D/L	.	.	.
!LO:TX:t=P:problem:kreska pseudotaktowa	!	!	!
8C/J	.	.	.
4D\	.	.	.
4Eny\	.	.	.
4F\	.	.	.
8E\L	.	.	.
!LO:TX:t=P:problem:kreska pseudotaktowa	!	!	!
8D\J	.	.	.
=22-	=22-	=22-	=22-
4E\	.	1r	.
4F#X\	.	.	.
1G	.	.	.
.	.	1d	A-
!LO:TX:t=P:problem:kreska pseudotaktowa	!	!	!
2F#X\	.	.	.
=23-	=23-	=23-	=23-
2G\	-tris	2G/	-ve
!LO:TX:t=P:problem:kreska pseudotaktowa	!	!	!
2rF	.	2.e-X\	Fi-
!LO:TX:t=P:problem:kreska pseudotaktowa	!	!	!
0r	.	.	.
.	.	4e-\	-li-
.	.	2d\	-a
=24-	=24-	=24-	=24-
.	.	2c\	DE-
!	!	!LO:N:acc=#	!
.	.	2Bn\	-i
1C	A-	(<1c	Pa-
=25-	=25-	=25-	=25-
2GG/	-ve	1d)	.
!LO:TX:t=P:problem:kreska pseudotaktowa	!	!	!
2G\	A-	.	.
2D,</	-ve	1d	-tris
2.B-\	Fi-	.	.
=26-	=26-	=26-	=26-
.	.	1re	.
4B-\	-li-	.	.
!LO:TX:t=P:problem:kreska pseudotaktowa	!	!	!
2A\	-a	.	.
2G\	DE-	1d	A-
!LO:LB:g=original	!	!	!
!LO:TX:t=P:problem:kreska pseudotaktowa	!	!	!
2F#X\	-i	.	.
=27-	=27-	=27-	=27-
2.G\	Pa-	2B-y\	-ve
.	.	2.d\	Fi-
!LO:TX:t=P:problem:kreska pseudotaktowa	!	!	!
4Fny\	.	.	.
!LO:TX:t=P:problem:kreska pseudotaktowa	!	!	!
1E-X	.	.	.
.	.	4d\	-li-
.	.	2c\	-a
!	!	!LO:LB:g=original	!
=28-	=28-	=28-	=28-
2D,</	-tris	1d	DE-
1G	DE-	.	.
.	.	2c\	-i
!LO:TX:t=P:problem:kreska pseudotaktowa	!	!	!
2F\	-i	2.f\	Pa-
=29-	=29-	=29-	=29-
1B-	Pa-	.	.
.	.	4eny\	.
.	.	2d\	.
!LO:TX:t=P:problem:kreska pseudotaktowa	!	!	!
0A	.	2c#X\	-tris
.	.	2r	.
=30-	=30-	=30-	=30-
.	.	1A	A-
2A,<\	-tris	2D/	-ve
!LO:TX:t=P:problem:kreska pseudotaktowa	!	!	!
2D/	a-	2.B-X\	Fi-
=31-	=31-	=31-	=31-
2GG/	-ve	.	.
.	.	4B-\	-li-
2.E-X\	Fi-	2A/	-a
.	.	2G/	DE-
4E-\	-li-	.	.
!LO:TX:t=P:problem:kreska pseudotaktowa	!	!	!
2D/	-a	2F#X/	-i
=32-	=32-	=32-	=32-
2C/	DE-	2G/	DE-
!LO:N:acc=#	!	!	!
2BBn/	-i	2d\	-i
4C\	Pa-	4e-X\	Pa-
4D\	.	4d\	.
4Eny\	.	4cny\	.
!LO:TX:t=P:problem:kreska pseudotaktowa	!	!	!
4F\	.	8B-\L	.
.	.	8A\J	.
=33-	=33-	=33-	=33-
2.G\	.	4B-\	.
.	.	4A\	.
.	.	4B-\	.
8F\L	.	4c\	.
8E\J	.	.	.
!LO:LB:g=original	!	!	!
!LO:TX:t=P:problem:kreska pseudotaktowa	!	!	!
0D	.	4d\	.
.	.	4c\	.
.	.	4B-\	.
.	.	8A\L	.
.	.	8G\J	.
!	!	!LO:LB:g=original	!
=34-	=34-	=34-	=34-
.	.	1A	.
!	!	!LO:N:acc=#	!
2GG/	-tris	2Bn\	-tris
!LO:TX:t=P:problem:kreska pseudotaktowa	!	!	!
2D\	a-	2r	.
=35-	=35-	=35-	=35-
!LO:TX:a:t=P:problem:♮ above	!	!	!
2En\	-ve	0r	.
1G	a-	.	.
!LO:TX:t=P:problem:kreska pseudotaktowa	!	!	!
2F\	-ve	.	.
=36-	=36-	=36-	=36-
1E	Ma-	2r	.
.	.	2G/	A-
!LO:TX:t=P:problem:kreska pseudotaktowa	!	!	!
1D,<	-ter	2A\	-ve
.	.	1d\	Ma-
=37-	=37-	=37-	=37-
2.E\	DE-	.	.
.	.	1c	-ter
!LO:TX:t=P:problem:kreska pseudotaktowa	!	!	!
4F\	-i	.	.
2.G\	Fi-	.	.
!	!	!LO:N:acc=#	!
.	.	2Bn\	DE-
!LO:TX:t=P:problem:kreska pseudotaktowa	!	!	!
4G\	-li-	.	.
=38-	=38-	=38-	=38-
2C/	-i	2c\	-i
!LO:TX:t=P:problem:kreska pseudotaktowa	!	!	!
2GG/	a-	2r	.
2AA/	-ve	1r	.
*	*ij	*	*
1C/	a-	.	.
=39-	=39-	=39-	=39-
.	.	2r	.
!LO:TX:t=P:problem:kreska pseudotaktowa	!	!	!
2BB-y/	-ve	2G/	A-
*	*Xij	*	*
!LO:TX:t=P:problem:kreska pseudotaktowa	!	!	!
1AA	Ma-	2A\	-ve
.	.	1c\	Ma-
=40-	=40-	=40-	=40-
4GG/	.	.	.
4AA/	.	.	.
4BB-/	.	2B-y\	-ter
!LO:TX:t=P:problem:kreska pseudotaktowa	!	!	!
4C/	.	.	.
4D\	.	2.A\	DE-
4E\	.	.	.
4F\	-ter	.	.
4G\	.	4B-\	.
!LO:LB:g=original	!	!	!
=41-	=41-	=41-	=41-
2.A\	DE-	1.c	.
4G\	-i	.	.
2F#X\	Fi-	.	.
!LO:TX:t=P:problem:kreska pseudotaktowa	!	!	!
2G\	-li-	2B-\	.
=42-	=42-	=42-	=42-
2D,</	-i	1A	.
!LO:TX:t=P:problem:kreska pseudotaktowa	!	!	!
2D/	a-	.	.
2E\	-ve	2G/	-i
*	*ij	*	*
1G\	a-	2G/	a-
=43-	=43-	=43-	=43-
.	.	2A/	-ve
!LO:TX:t=P:problem:kreska pseudotaktowa	!	!	!
2Fny\	-ve	1d	Ma-
*	*Xij	*	*
1En	Ma-	.	.
.	.	2c\	-ter
!	!	!LO:LB:g=original	!
=44-	=44-	=44-	=44-
2D/	.	2B-\	DE-
4D/	-ter	1A	.
!LO:TX:t=P:problem:kreska pseudotaktowa	!	!	!
4E\	DE-	.	.
4F\	.	.	.
4D\	.	.	.
1G\	.	4B-\	.
.	.	4c\	.
=45-	=45-	=45-	=45-
.	.	4d\	.
.	.	4B-\	.
!LO:TX:t=P:problem:kreska pseudotaktowa	!	!	!
2E-X\	-i	1e-X	.
1.F	Fi-	.	.
.	.	2d\	-i
=46-	=46-	=46-	=46-
.	.	2.c\	Fi-
!LO:TX:t=P:problem:kreska pseudotaktowa	!	!	!
2F\	-li-	.	.
.	.	4c\	-li-
2BB-,</	-i	1d	-i
!LO:TX:t=P:problem:kreska pseudotaktowa	!	!	!
2B-\	A-	.	.
=47-	=47-	=47-	=47-
!LO:SIC:v:t=custos B-	!	!	!
2G\	-ve	00r	.
!LO:LB:g=original	!	!	!
1B-	A-	.	.
!LO:TX:t=P:problem:kreska pseudotaktowa	!	!	!
2A\	-ve	.	.
=48-	=48-	=48-	=48-
1G	ſpon-	.	.
2F,<\	-ſa	.	.
4D\	ſan-	.	.
!LO:TX:t=P:problem:kreska pseudotaktowa	!	!	!
4Eny\	.	.	.
=49-	=49-	=49-	=49-
4F\	.	00r	.
4G\	.	.	.
1A	.	.	.
!LO:TX:t=P:problem:kreska pseudotaktowa	!	!	!
2E\	-cti	.	.
=50-	=50-	=50-	=50-
1F	ſpi-	.	.
1.G	-ri-	.	.
=51-	=51-	=51-	=51-
.	.	2r	.
2G\	-tus	2G/	a-
!LO:TX:t=P:problem:kreska pseudotaktowa	!	!	!
1C	.	2E/	-ve
.	.	2c\	a-
=52-	=52-	=52-	=52-
0r	.	2A\	-ve
*	*	*	*ij
.	.	1c	a-
.	.	2B-\	-ve
*	*	*	*Xij
=53-	=53-	=53-	=53-
!LO:TX:t=P:problem:kreska pseudotaktowa	!	!	!
1r	.	1A	ſpon-
2r	.	1G	-ſa
!LO:TX:t=P:problem:kreska pseudotaktowa	!	!	!
2G\	A-	.	.
=54-	=54-	=54-	=54-
2D/	-ve	0r	.
1G	a-	.	.
!LO:TX:t=P:problem:kreska pseudotaktowa	!	!	!
2F\	-ve	.	.
=55-	=55-	=55-	=55-
1E-X	ſpon-	1r	.
!LO:TX:t=P:problem:kreska pseudotaktowa	!	!	!
1D	.	2r	.
.	.	2d\	a-
=56-	=56-	=56-	=56-
!LO:TX:t=P:problem:kreska pseudotaktowa	!	!	!
2GG/	-ſa	2B-\	-ve
!LO:LB:g=original	!	!	!
*	*	*	*ij
00r	.	1d	a-
.	.	.	.
.	.	2c\	-ve
*	*	*	*Xij
!	!	!LO:LB:g=original	!
=57-	=57-	=57-	=57-
.	.	1B-	ſpon-
.	.	2A/	-ſa
.	.	4Fny/	ſan-
.	.	4G/	.
=58-	=58-	=58-	=58-
.	.	4A\	.
.	.	4B-\	.
0r	.	2c\	.
.	.	2C/	.
.	.	2D/	-cti
=59-	=59-	=59-	=59-
.	.	1.C	ſpi-
!LO:N:vis=1	!	!	!
!LO:TX:t=P:problem:kreska pseudotaktowa	!	!	!
1.r	.	.	.
.	.	2C/	-ri-
=60-	=60-	=60-	=60-
2r	.	2F/	-tus
!LO:TX:t=P:problem:kreska pseudotaktowa	!	!	!
2F\	a-	2A/	a-
2D\	-ve	2B-/	-ve
*	*ij	*	*
!LO:TX:t=P:problem:kreska pseudotaktowa	!	!	!
2F\	a-	2A/	a-
=61-	=61-	=61-	=61-
!LO:TX:t=P:problem:kreska pseudotaktowa	!	!	!
1C	-ve	2G/	-ve
*	*	*	*ij
.	.	2c\	a-
!LO:TX:t=P:problem:kreska pseudotaktowa	!	!	!
1r	.	2A\	-ve
.	.	2c\	a-
=62-	=62-	=62-	=62-
2r	.	2G/	-ve
*	*	*	*Xij
!LO:TX:t=P:problem:kreska pseudotaktowa	!	!	!
2G\	a-	2B-\	a-
2Eny\	-ve	2G/	-ve
1G\	a-	1B-\	a-
=63-	=63-	=63-	=63-
.	.	.	.
2F\	-ve	2A/	-ve
!LO:TX:t=P:problem:kreska pseudotaktowa	!	!	!
*	*Xij	*	*
1E	ſpon-	1G	ſpon-
!	!	!LO:LB:g=original	!
=64-	=64-	=64-	=64-
2D,</	-ſa	2A/	-ſa
4D\	ſan-	4F/	ſan-
!LO:TX:t=P:problem:kreska pseudotaktowa	!	!	!
4E\	.	4G/	.
4F\	.	2.A\	.
4G\	.	.	.
1A\	.	.	.
.	.	4B-\	.
=65-	=65-	=65-	=65-
.	.	4c\	.
.	.	4A\	.
!LO:TX:t=P:problem:kreska pseudotaktowa	!	!	!
2F\	-cti	2.d\	.
2.B-\	ſan-	.	.
.	.	4c\	.
.	.	1B-\	-cti
!LO:TX:t=P:problem:kreska pseudotaktowa	!	!	!
4A\	.	.	.
=66-	=66-	=66-	=66-
2G\	.	.	.
!LO:TX:t=P:problem:kreska pseudotaktowa	!	!	!
2G,<\	-cti	2B-\	ſan-
1.D	ſpi-	2A\	.
.	.	2B-\	-cti
=67-	=67-	=67-	=67-
.	.	2.A\	ſpi-
!LO:TX:t=P:problem:kreska pseudotaktowa	!	!	!
2D/	-ri-	.	.
.	.	4A\	-ri-
!LO:LB:g=original	!	!LO:N:acc=#	!
2G,<\	-tus	2Bn\	-tus
1G\	a-	1B\	a-
=68-	=68-	=68-	=68-
.	.	.	.
!LO:TX:t=P:problem:kreska pseudotaktowa	!	!	!
2G\	-ve	2Bny\	-ve
!LO:TX:t=P:problem:kreska pseudotaktowa	!	!	!
1C	a-	1c	a-
=69-	=69-	=69-	=69-
2G,<\	-ve	2B-y\	-ve
*	*ij	*	*ij
1D	a-	1A	a-
!LO:TX:t=P:problem:kreska pseudotaktowa	!	!	!
2D/	-ve	2d\	-ve
=70-	=70-	=70-	=70-
0AA	a-	2eny\	a-
.	.	[<1A	-ve
.	.	1A]	a-
=71-	=71-	=71-	=71-
!LO:TX:t=P:problem:kreska pseudotaktowa	!	!	!
1D	-ve	.	.
.	.	2A/	-ve
*	*Xij	*	*Xij
!	!	!LO:LB:g=original	!
0r	.	2rF	.
.	.	2G/	to-
=72-	=72-	=72-	=72-
.	.	4F/	-ti-
.	.	4D/	-us
.	.	4A\	Tri-
.	.	4B-\	-ni-
!LO:TX:t=P:problem:kreska pseudotaktowa	!	!	!
1r	.	4c\	-ta-
.	.	8B-\L	.
.	.	8c\J	.
.	.	4G/	.
.	.	4A/	.
=73-	=73-	=73-	=73-
2r	.	1B-	.
!LO:TX:t=P:problem:kreska pseudotaktowa	!	!	!
2G\	to-	.	.
4F\	-ti-	1A	-tis
4D\	-us	.	.
4A\	Tri-	.	.
!LO:TX:t=P:problem:kreska pseudotaktowa	!	!	!
4B-\	-ni-	.	.
=74-	=74-	=74-	=74-
4c\	-ta-	1rA	.
8B-\L	.	.	.
8c\J	.	.	.
4G\	.	.	.
!LO:TX:t=P:problem:kreska pseudotaktowa	!	!	!
4A\	.	.	.
2.B-\	.	2r	.
.	.	2d\	to-
4A\	.	.	.
=75-	=75-	=75-	=75-
2.G\	.	4B-\	-ti-
.	.	4G/	-us
.	.	4d\	Tri-
8F\L	.	4e\	-ni-
!LO:TX:t=P:problem:kreska pseudotaktowa	!	!	!
8E\J	.	.	.
!LO:PB:g=original	!	!	!
4D\	.	4f\	-ta-
4E\	.	8e\L	.
.	.	8f\J	.
4F\	.	4c\	.
8E\L	.	4d\	.
!LO:TX:t=P:problem:kreska pseudotaktowa	!	!	!
8D\J	.	.	.
=76-	=76-	=76-	=76-
4C/	.	2e-X\	.
4D/	.	.	.
4E-X/	.	2B-\	.
!LO:TX:t=P:problem:kreska pseudotaktowa	!	!	!
4BB-/	.	.	.
2C/	.	(2e-\	.
2D/	.	2d\)	.
=77-	=77-	=77-	=77-
2GG,</	-tis	1d	-tis
4.G\	No-	.	.
!LO:TX:t=P:problem:kreska pseudotaktowa	!	!	!
8F\	-bi-	.	.
!	!	!LO:PB:g=original	!
2E-X,<\	-le	4.e-X\	No-
.	.	8d\	-bi-
*	*ij	*	*
4.E-\	No-	2c\	-le
!LO:TX:t=P:problem:kreska pseudotaktowa	!	!	!
8E-\	-bi-	.	.
=78-	=78-	=78-	=78-
*	*	*	*ij
2F\	-le	4.f\	No-
*	*Xij	*	*
.	.	8e-y\	-bi-
2BB-/	tri-	4d\	-le
*	*	*	*Xij
.	.	4B-\	tri-
2.F\	-cli-	2.B-\	-cli-
!LO:TX:t=P:problem:kreska pseudotaktowa	!	!	!
4F\	-ni-	4A\	-ni-
=79-	=79-	=79-	=79-
2BB-,</	-um	1B-	-um
2BB-/	to-	.	.
4AA/	-ti-	0r	.
4FF/	-us	.	.
4AA/	Tri-	.	.
!LO:TX:t=P:problem:kreska pseudotaktowa	!	!	!
4BB-/	-ni-	.	.
!LO:LB:g=original	!	!	!
=80-	=80-	=80-	=80-
4C/	-ta-	.	.
8BB-/L	.	.	.
8C/J	.	.	.
4GG/	.	.	.
!LO:TX:t=P:problem:kreska pseudotaktowa	!	!	!
4AA/	.	.	.
2.BB-/	.	1r	.
8AA/L	.	.	.
8GG/J	.	.	.
=81-	=81-	=81-	=81-
1AA	.	2r	.
.	.	2A/	to-
2D,<\	-tis	4F/	-ti-
.	.	4D/	-us
!LO:TX:t=P:problem:kreska pseudotaktowa	!	!	!
2D\	to-	4G/	Tri-
.	.	4A/	-ni-
=82-	=82-	=82-	=82-
4BB-/	-ti-	4B-\	-ta-
4GG/	-us	8A\L	.
.	.	8B-\J	.
4D\	Tri-	4F/	.
!LO:TX:t=P:problem:kreska pseudotaktowa	!	!	!
4Eny\	-ni-	4G/	.
4F\	-ta-	4A/	.
8E\L	.	4B-/	.
8F\J	.	.	.
4C/	.	4c\	.
!LO:TX:t=P:problem:kreska pseudotaktowa	!	!	!
4D/	.	8B-\L	.
.	.	8c\J	.
!	!	!LO:LB:g=original	!
=83-	=83-	=83-	=83-
4E\	.	4G/	.
4F\	.	4A/	.
2G\	.	4B-\	.
.	.	8c\L	.
.	.	8B-\J	.
1D	.	1A	.
=84-	=84-	=84-	=84-
2GG,</	-tis	2G/	-tis
!LO:TX:t=P:problem:kreska pseudotaktowa	!	!	!
2G\	to-	2B-/	to-
4F\	-ti-	4A/	-ti-
4D\	-us	4F/	-us
!LO:LB:g=original	!	!	!
4F\	Tri-	4A/	Tri-
8E\L	-ni-	4B-/	-ni-
!LO:TX:t=P:problem:kreska pseudotaktowa	!	!	!
8D\J	.	.	.
=85-	=85-	=85-	=85-
4C\	-ta-	4c\	-ta-
4D\	.	8B-\L	.
.	.	8c\J	.
4E-X\	.	4G/	.
8D\L	.	4A/	.
!LO:TX:t=P:problem:kreska pseudotaktowa	!	!	!
8E-\J	.	.	.
4BB-/	.	4B-\	.
4C/	.	8A\L	.
.	.	8B-\J	.
2D/	.	2F/	.
=86-	=86-	=86-	=86-
1E-X	.	4G/	.
.	.	4A/	.
.	.	4B-/	.
.	.	8A/L	.
.	.	8G/J	.
1D	.	2A/	-tis
.	.	2d\	to-
!	!	!LO:LB:g=original	!
=87-	=87-	=87-	=87-
!LO:TX:t=P:problem:kreska pseudotaktowa	!	!	!
1GG	-tis	4B-\	-ti-
.	.	4G\	-us
.	.	4d\	Tri-
.	.	4eny\	-ni-
0rC	.	4f\	-ta-
.	.	8e\L	.
.	.	8f\J	.
.	.	4c\	.
.	.	4d\	.
=88-	=88-	=88-	=88-
.	.	1e-X	.
2r	.	1d	-tis
!LO:TX:t=P:problem:kreska pseudotaktowa	!	!	!
2G\	to-	.	.
=89-	=89-	=89-	=89-
4F\	-ti-	0r	.
4D\	-us	.	.
4A\	Tri-	.	.
4B-\	-ni-	.	.
4c\	-ta-	.	.
8B-\L	.	.	.
8c\J	.	.	.
4G\	.	.	.
!LO:TX:t=P:problem:kreska pseudotaktowa	!	!	!
4A\	.	.	.
=90-	=90-	=90-	=90-
2.B-\	.	1r	.
4A\	.	.	.
!LO:LB:g=original	!	!	!
!LO:TX:t=P:problem:kreska pseudotaktowa	!	!	!
1G	.	2r	.
.	.	2G/	to-
=91-	=91-	=91-	=91-
2D,</	-tis	4F/	-ti-
.	.	4D/	-us
4D/	no-	4A\	Tri-
!LO:TX:t=P:problem:kreska pseudotaktowa	!	!	!
4D/	-bi-	4B-\	-ni-
4C/	-le	4c\	-ta-
4D/	.	8B-\L	.
.	.	8A\J	.
4E-X\	.	4G/	.
4F\	.	4A/	.
=92-	=92-	=92-	=92-
2G\	.	4B-/	.
.	.	4G/	.
!LO:TX:t=P:problem:kreska pseudotaktowa	!	!	!
2C/	tri-	1c	.
2.GG/	-cli-	.	.
!	!	!LO:N:acc=#	!
.	.	2Bn\	.
!LO:TX:t=P:problem:kreska pseudotaktowa	!	!	!
4GG/	-ni-	.	.
!	!	!LO:LB:g=original	!
=93-	=93-	=93-	=93-
2C,</	-um	2c\	-tis
4.C/	No-	2G,</	.
!LO:TX:t=P:problem:kreska pseudotaktowa	!	!	!
8BB-/	-bi-	.	.
2AA/	-le	4.A/	No-
.	.	8G/	-bi-
*	*ij	*	*
4.D/	No-	2F/	-le
!LO:TX:t=P:problem:kreska pseudotaktowa	!	!	!
8C/	-bi-	.	.
=94-	=94-	=94-	=94-
2BB-/	-le	4.B-y\	No-
.	.	8A\	-bi-
4.E-X\	No-	2G/	-le
8D\	-bi-	.	.
2C/	-le	4.c\	No-
*	*Xij	*	*
.	.	8c\	-bi-
!LO:TX:t=P:problem:kreska pseudotaktowa	!	!	!
!LO:N:acc=#	!	!	!
2BBn/	tri-	4.d\	-le
.	.	8d\	tri-
!LO:LB:g=original	!	!	!
=95-	=95-	=95-	=95-
1C	-cli-	2.e-X\	-cli-
.	.	4e-\	-ni-
[<0D	.	2A/	-um
.	.	4d\	No-
.	.	4d\	-bi-
=96-	=96-	=96-	=96-
.	.	2c\	-le
.	.	2B-\	tri-
1.D]	.	2A/	-cli-
.	.	2G/	.
=97-	=97-	=97-	=97-
.	.	2.d\	-ni-
2D/	-ni-	.	.
.	.	4c\	.
!	!	!LO:N:acc=#	!
!	!	!LO:TX:a:t=P:problem:# above	!
1.GGl;;	-um	1.Bnl;;	-um
==	==	==	==
*-	*-	*-	*-
!!!system-decoration: [(s1,s2)]
!!!RDF**kern: > = above
!!!RDF**kern: < = below
!!!RDF**kern: l = terminal long
!!!ENC: Andrzej Kubiczek
!!!END: 2021-07-15
!!!ENC: Tomasz Grochalski
!!!END: 2021-07-01
